build/images/logo/logo-dark.svg

<svg fill="none" height="50" viewBox="0 0 215 50" width="215" xmlns="http://www.w3.org/2000/svg" xmlns:xlink="http://www.w3.org/1999/xlink"><linearGradient id="a" gradientUnits="userSpaceOnUse" x1="7.99876" x2="27.6203" y1="7.84785" y2="27.4693"><stop offset="0" stop-color="#4a6cf7"/><stop offset="1" stop-color="#4a6cf7" stop-opacity="0"/></linearGradient><linearGradient id="b" gradientUnits="userSpaceOnUse" x1="7.99878" x2="27.6203" y1="21.9268" y2="41.5483"><stop offset="0" stop-color="#4a6cf7" stop-opacity="0"/><stop offset="1" stop-color="#4a6cf7"/></linearGradient><path d="m15.8259.884154c1.1789-1.178872 3.0902-1.178872 4.2691.000001l14.9418 14.941745c1.1788 1.1789 1.1788 3.0902 0 4.2691l-14.9418 14.9418c-1.1789 1.1788-3.0902 1.1788-4.2691 0l-14.941746-14.9418c-1.178872-1.1789-1.178872-3.0902.000001-4.2691z" fill="url(#a)"/><path d="m15.8259 14.9632c1.1789-1.1789 3.0902-1.1789 4.2691 0l14.9418 14.9417c1.1788 1.1789 1.1788 3.0902 0 4.2691l-14.9418 14.9418c-1.1789 1.1788-3.0902 1.1788-4.2691 0l-14.941746-14.9418c-1.178872-1.1789-1.178872-3.0902.000001-4.2691z" fill="url(#b)"/><g fill="#fff"><path d="m65.744 36.168c-1.728 0-3.3173-.288-4.768-.864-1.4293-.5973-2.6667-1.4187-3.712-2.464s-1.856-2.272-2.432-3.68c-.5547-1.408-.832-2.9333-.832-4.576s.288-3.1573.864-4.544c.5973-1.408 1.4293-2.624 2.496-3.648 1.088-1.0453 2.3573-1.856 3.808-2.432s3.04-.864 4.768-.864c1.1947 0 2.336.16 3.424.48s2.08.7573 2.976 1.312 1.6427 1.1947 2.24 1.92l-2.976 3.136c-.5547-.5333-1.1413-.9813-1.76-1.344-.5973-.384-1.2267-.672-1.888-.864-.6613-.2133-1.344-.32-2.048-.32-1.0027 0-1.9307.1813-2.784.544-.832.3627-1.568.864-2.208 1.504s-1.1413 1.3973-1.504 2.272c-.3413.8747-.512 1.824-.512 2.848 0 1.0027.1813 1.952.544 2.848.384.8747.896 1.6427 1.536 2.304.6613.64 1.4293 1.152 2.304 1.536.8747.3627 1.8133.544 2.816.544.704 0 1.376-.1067 2.016-.32s1.1947-.512 1.664-.896c.4907-.4053.864-.8747 1.12-1.408.2773-.5333.416-1.0987.416-1.696v-.768l.64.896h-6.4v-4h10.368c.0213.2347.0427.5227.064.864.0427.3413.064.6827.064 1.024.0213.32.032.576.032.768 0 1.4507-.2667 2.784-.8 4-.512 1.216-1.2373 2.2613-2.176 3.136-.9173.8747-2.0053 1.5573-3.264 2.048-1.2587.4693-2.624.704-4.096.704z"/><path d="m87.0478 36.168c-1.728 0-3.2747-.3733-4.6401-1.12-1.344-.768-2.4106-1.8133-3.1999-3.136-.768-1.3227-1.1521-2.8373-1.1521-4.544s.3841-3.2107 1.1521-4.512c.7893-1.3227 1.8559-2.368 3.1999-3.136 1.3654-.768 2.9121-1.152 4.6401-1.152 1.7066 0 3.232.384 4.576 1.152 1.3653.768 2.432 1.8133 3.1999 3.136.7681 1.3013 1.152 2.8053 1.152 4.512s-.3839 3.2213-1.152 4.544c-.7679 1.3227-1.8346 2.368-3.1999 3.136-1.344.7467-2.8694 1.12-4.576 1.12zm0-3.968c.832 0 1.5786-.2027 2.24-.608.6613-.4267 1.1733-1.0027 1.536-1.728.384-.7467.576-1.5787.576-2.496 0-.9387-.192-1.7707-.576-2.496-.3627-.7467-.8747-1.3227-1.536-1.728-.6614-.4267-1.408-.64-2.24-.64-.8534 0-1.6107.2133-2.272.64-.6614.4267-1.184 1.0027-1.568 1.728-.3841.7253-.5654 1.5573-.5441 2.496-.0213.9173.16 1.7493.5441 2.496.384.7253.9066 1.3013 1.568 1.728.6613.4053 1.4186.608 2.272.608z"/><path d="m106.799 36.168c-1.387 0-2.656-.1707-3.808-.512-1.131-.3413-2.144-.8427-3.0405-1.504-.8747-.6613-1.664-1.4613-2.368-2.4l3.0075-3.424c1.046 1.4507 2.081 2.4427 3.104 2.976 1.046.512 2.177.768 3.393.768.661 0 1.247-.0853 1.76-.256.533-.192.949-.4587 1.248-.8.298-.3413.448-.7467.448-1.216 0-.3413-.075-.6507-.224-.928-.15-.2987-.363-.5547-.64-.768-.278-.2347-.609-.4373-.992-.608-.384-.192-.811-.352-1.28-.48-.47-.1493-.982-.2667-1.536-.352-1.195-.2773-2.24-.608-3.136-.992-.896-.4053-1.643-.896-2.24-1.472-.5978-.5973-1.0458-1.2693-1.3445-2.016-.2773-.7467-.416-1.5893-.416-2.528 0-.96.2133-1.8453.64-2.656.4267-.832 1.0135-1.5467 1.7605-2.144.768-.5973 1.642-1.056 2.624-1.376 1.002-.32 2.058-.48 3.168-.48 1.365 0 2.56.16 3.584.48 1.024.2987 1.909.736 2.656 1.312.768.576 1.408 1.28 1.92 2.112l-3.04 2.944c-.448-.5973-.939-1.0987-1.472-1.504-.513-.4053-1.078-.704-1.696-.896-.598-.2133-1.216-.32-1.856-.32-.704 0-1.312.096-1.824.288-.512.1707-.918.4267-1.216.768-.278.3413-.416.7573-.416 1.248 0 .384.096.7253.288 1.024s.469.5653.832.8c.362.2133.799.4053 1.312.576.512.1707 1.077.32 1.695.448 1.174.2347 2.23.544 3.169.928.938.384 1.738.8533 2.4 1.408.682.5333 1.205 1.1733 1.568 1.92.362.7253.544 1.5467.544 2.464 0 1.5147-.363 2.8053-1.088 3.872-.726 1.0667-1.728 1.888-3.008 2.464-1.28.5547-2.774.832-4.48.832z"/><path d="m120.214 35.848v-21.216h4.544v21.216zm-3.168-12.864v-4.064h11.168v4.064z"/><path d="m136.855 36.168c-1.407 0-2.677-.384-3.807-1.152-1.131-.768-2.027-1.8133-2.689-3.136-.661-1.3227-.991-2.8373-.991-4.544s.33-3.2107.991-4.512c.683-1.3227 1.6-2.3573 2.752-3.104 1.152-.768 2.465-1.152 3.937-1.152.832 0 1.589.128 2.271.384.704.2347 1.313.5653 1.825.992.533.4267.981.9173 1.343 1.472.363.5547.619 1.152.769 1.792l-.96-.16v-4.128h4.511v16.928h-4.576v-4.064l1.025-.096c-.171.5973-.448 1.1627-.832 1.696-.385.5333-.865 1.0133-1.441 1.44-.554.4053-1.184.736-1.888.992-.704.2347-1.45.352-2.24.352zm1.249-3.936c.853 0 1.599-.2027 2.239-.608s1.131-.9707 1.472-1.696c.363-.7467.544-1.6107.544-2.592 0-.96-.181-1.8027-.544-2.528-.341-.7253-.832-1.2907-1.472-1.696-.64-.4267-1.386-.64-2.239-.64-.833 0-1.569.2133-2.208.64-.619.4053-1.11.9707-1.472 1.696-.363.7253-.544 1.568-.544 2.528 0 .9813.181 1.8453.544 2.592.362.7253.853 1.2907 1.472 1.696.639.4053 1.375.608 2.208.608z"/><path d="m150.863 35.848v-16.928h4.384l.16 5.44-.768-1.12c.256-.8747.672-1.664 1.248-2.368.576-.7253 1.248-1.2907 2.016-1.696.79-.4053 1.611-.608 2.464-.608.363 0 .715.032 1.056.096.342.064.63.1387.864.224l-1.216 4.992c-.256-.128-.565-.2347-.928-.32-.362-.1067-.736-.16-1.12-.16-.512 0-.992.096-1.44.288-.426.1707-.8.4267-1.12.768-.32.32-.576.704-.768 1.152-.17.448-.256.9387-.256 1.472v8.768z"/><path d="m166.651 35.848v-21.216h4.544v21.216zm-3.168-12.864v-4.064h11.168v4.064z"/><path d="m182.937 36.168c-1.237 0-2.304-.2667-3.2-.8-.874-.5547-1.557-1.3333-2.048-2.336-.469-1.024-.704-2.2507-.704-3.68v-10.432h4.544v9.696c0 .768.128 1.44.384 2.016.256.5547.619.9813 1.088 1.28.47.2987 1.046.448 1.728.448.491 0 .95-.0747 1.376-.224.427-.1707.79-.4053 1.088-.704.299-.2987.534-.6507.704-1.056.171-.4053.256-.8427.256-1.312v-10.144h4.544v16.928h-4.32l-.16-3.488.832-.384c-.256.7893-.682 1.504-1.28 2.144-.597.64-1.312 1.1413-2.144 1.504s-1.728.544-2.688.544z"/><path d="m196.77 42.888v-23.968h4.384l.127 3.808-.832-.288c.15-.6827.512-1.312 1.088-1.888.598-.576 1.334-1.0453 2.208-1.408.875-.3627 1.792-.544 2.752-.544 1.472 0 2.774.384 3.905 1.152 1.151.7467 2.058 1.7813 2.719 3.104.683 1.3013 1.024 2.8053 1.024 4.512 0 1.6853-.33 3.1893-.991 4.512-.662 1.3227-1.568 2.368-2.72 3.136-1.152.7467-2.465 1.12-3.937 1.12-.981 0-1.92-.1813-2.815-.544-.875-.384-1.622-.8853-2.241-1.504-.618-.6187-1.002-1.28-1.151-1.984l1.056-.448v11.232zm8.703-10.656c.832 0 1.569-.2027 2.209-.608s1.141-.9707 1.504-1.696c.362-.7467.543-1.6.543-2.56s-.181-1.8027-.543-2.528c-.363-.7253-.864-1.2907-1.504-1.696-.619-.4053-1.355-.608-2.209-.608-.853 0-1.6.2027-2.24.608-.64.384-1.141.9493-1.504 1.696-.362.7253-.543 1.568-.543 2.528s.181 1.8133.543 2.56c.363.7253.864 1.2907 1.504 1.696s1.387.608 2.24.608z"/></g></svg>

<svg width="215" height="50" viewBox="0 0 215 50" fill="none" xmlns="http://www.w3.org/2000/svg">
<path d="M15.8259 0.884154C17.0048 -0.294718 18.9161 -0.294718 20.095 0.884155L35.0368 15.8259C36.2156 17.0048 36.2156 18.9161 35.0368 20.095L20.095 35.0368C18.9161 36.2156 17.0048 36.2156 15.8259 35.0368L0.884154 20.095C-0.294718 18.9161 -0.294718 17.0048 0.884155 15.8259L15.8259 0.884154Z" fill="url(#paint0_linear_14_61)"/>
<path d="M15.8259 14.9632C17.0048 13.7843 18.9161 13.7843 20.095 14.9632L35.0368 29.9049C36.2156 31.0838 36.2156 32.9951 35.0368 34.174L20.095 49.1158C18.9161 50.2946 17.0048 50.2946 15.8259 49.1158L0.884154 34.174C-0.294718 32.9951 -0.294718 31.0838 0.884155 29.9049L15.8259 14.9632Z" fill="url(#paint1_linear_14_61)"/>
<path d="M65.744 36.168C64.016 36.168 62.4267 35.88 60.976 35.304C59.5467 34.7067 58.3093 33.8853 57.264 32.84C56.2187 31.7947 55.408 30.568 54.832 29.16C54.2773 27.752 54 26.2267 54 24.584C54 22.9413 54.288 21.4267 54.864 20.04C55.4613 18.632 56.2933 17.416 57.36 16.392C58.448 15.3467 59.7173 14.536 61.168 13.96C62.6187 13.384 64.208 13.096 65.936 13.096C67.1307 13.096 68.272 13.256 69.36 13.576C70.448 13.896 71.44 14.3333 72.336 14.888C73.232 15.4427 73.9787 16.0827 74.576 16.808L71.6 19.944C71.0453 19.4107 70.4587 18.9627 69.84 18.6C69.2427 18.216 68.6133 17.928 67.952 17.736C67.2907 17.5227 66.608 17.416 65.904 17.416C64.9013 17.416 63.9733 17.5973 63.12 17.96C62.288 18.3227 61.552 18.824 60.912 19.464C60.272 20.104 59.7707 20.8613 59.408 21.736C59.0667 22.6107 58.896 23.56 58.896 24.584C58.896 25.5867 59.0773 26.536 59.44 27.432C59.824 28.3067 60.336 29.0747 60.976 29.736C61.6373 30.376 62.4053 30.888 63.28 31.272C64.1547 31.6347 65.0933 31.816 66.096 31.816C66.8 31.816 67.472 31.7093 68.112 31.496C68.752 31.2827 69.3067 30.984 69.776 30.6C70.2667 30.1947 70.64 29.7253 70.896 29.192C71.1733 28.6587 71.312 28.0933 71.312 27.496V26.728L71.952 27.624H65.552V23.624H75.92C75.9413 23.8587 75.9627 24.1467 75.984 24.488C76.0267 24.8293 76.048 25.1707 76.048 25.512C76.0693 25.832 76.08 26.088 76.08 26.28C76.08 27.7307 75.8133 29.064 75.28 30.28C74.768 31.496 74.0427 32.5413 73.104 33.416C72.1867 34.2907 71.0987 34.9733 69.84 35.464C68.5813 35.9333 67.216 36.168 65.744 36.168Z" fill="white"/>
<path d="M87.0478 36.168C85.3198 36.168 83.7731 35.7947 82.4077 35.048C81.0637 34.28 79.9971 33.2347 79.2078 31.912C78.4398 30.5893 78.0557 29.0747 78.0557 27.368C78.0557 25.6613 78.4398 24.1573 79.2078 22.856C79.9971 21.5333 81.0637 20.488 82.4077 19.72C83.7731 18.952 85.3198 18.568 87.0478 18.568C88.7544 18.568 90.2798 18.952 91.6238 19.72C92.9891 20.488 94.0558 21.5333 94.8237 22.856C95.5918 24.1573 95.9757 25.6613 95.9757 27.368C95.9757 29.0747 95.5918 30.5893 94.8237 31.912C94.0558 33.2347 92.9891 34.28 91.6238 35.048C90.2798 35.7947 88.7544 36.168 87.0478 36.168ZM87.0478 32.2C87.8798 32.2 88.6264 31.9973 89.2878 31.592C89.9491 31.1653 90.4611 30.5893 90.8238 29.864C91.2078 29.1173 91.3998 28.2853 91.3998 27.368C91.3998 26.4293 91.2078 25.5973 90.8238 24.872C90.4611 24.1253 89.9491 23.5493 89.2878 23.144C88.6264 22.7173 87.8798 22.504 87.0478 22.504C86.1944 22.504 85.4371 22.7173 84.7758 23.144C84.1144 23.5707 83.5918 24.1467 83.2078 24.872C82.8237 25.5973 82.6424 26.4293 82.6637 27.368C82.6424 28.2853 82.8237 29.1173 83.2078 29.864C83.5918 30.5893 84.1144 31.1653 84.7758 31.592C85.4371 31.9973 86.1944 32.2 87.0478 32.2Z" fill="white"/>
<path d="M106.799 36.168C105.412 36.168 104.143 35.9973 102.991 35.656C101.86 35.3147 100.847 34.8133 99.9505 34.152C99.0758 33.4907 98.2865 32.6907 97.5825 31.752L100.59 28.328C101.636 29.7787 102.671 30.7707 103.694 31.304C104.74 31.816 105.871 32.072 107.087 32.072C107.748 32.072 108.334 31.9867 108.847 31.816C109.38 31.624 109.796 31.3573 110.095 31.016C110.393 30.6747 110.543 30.2693 110.543 29.8C110.543 29.4587 110.468 29.1493 110.319 28.872C110.169 28.5733 109.956 28.3173 109.679 28.104C109.401 27.8693 109.07 27.6667 108.687 27.496C108.303 27.304 107.876 27.144 107.407 27.016C106.937 26.8667 106.425 26.7493 105.871 26.664C104.676 26.3867 103.631 26.056 102.735 25.672C101.839 25.2667 101.092 24.776 100.495 24.2C99.8972 23.6027 99.4492 22.9307 99.1505 22.184C98.8732 21.4373 98.7345 20.5947 98.7345 19.656C98.7345 18.696 98.9478 17.8107 99.3745 17C99.8012 16.168 100.388 15.4533 101.135 14.856C101.903 14.2587 102.777 13.8 103.759 13.48C104.761 13.16 105.817 13 106.927 13C108.292 13 109.487 13.16 110.511 13.48C111.535 13.7787 112.42 14.216 113.167 14.792C113.935 15.368 114.575 16.072 115.087 16.904L112.047 19.848C111.599 19.2507 111.108 18.7493 110.575 18.344C110.062 17.9387 109.497 17.64 108.879 17.448C108.281 17.2347 107.663 17.128 107.023 17.128C106.319 17.128 105.711 17.224 105.199 17.416C104.687 17.5867 104.281 17.8427 103.983 18.184C103.705 18.5253 103.567 18.9413 103.567 19.432C103.567 19.816 103.663 20.1573 103.855 20.456C104.047 20.7547 104.324 21.0213 104.687 21.256C105.049 21.4693 105.486 21.6613 105.999 21.832C106.511 22.0027 107.076 22.152 107.694 22.28C108.868 22.5147 109.924 22.824 110.863 23.208C111.801 23.592 112.601 24.0613 113.263 24.616C113.945 25.1493 114.468 25.7893 114.831 26.536C115.193 27.2613 115.375 28.0827 115.375 29C115.375 30.5147 115.012 31.8053 114.287 32.872C113.561 33.9387 112.559 34.76 111.279 35.336C109.999 35.8907 108.505 36.168 106.799 36.168Z" fill="white"/>
<path d="M120.214 35.848V14.632H124.758V35.848H120.214ZM117.046 22.984V18.92H128.214V22.984H117.046Z" fill="white"/>
<path d="M136.855 36.168C135.448 36.168 134.178 35.784 133.048 35.016C131.917 34.248 131.021 33.2027 130.359 31.88C129.698 30.5573 129.368 29.0427 129.368 27.336C129.368 25.6293 129.698 24.1253 130.359 22.824C131.042 21.5013 131.959 20.4667 133.111 19.72C134.263 18.952 135.576 18.568 137.048 18.568C137.88 18.568 138.637 18.696 139.319 18.952C140.023 19.1867 140.632 19.5173 141.144 19.944C141.677 20.3707 142.125 20.8613 142.487 21.416C142.85 21.9707 143.106 22.568 143.256 23.208L142.296 23.048V18.92H146.807V35.848H142.231V31.784L143.256 31.688C143.085 32.2853 142.808 32.8507 142.424 33.384C142.039 33.9173 141.559 34.3973 140.983 34.824C140.429 35.2293 139.799 35.56 139.095 35.816C138.391 36.0507 137.645 36.168 136.855 36.168ZM138.104 32.232C138.957 32.232 139.703 32.0293 140.343 31.624C140.983 31.2187 141.474 30.6533 141.815 29.928C142.178 29.1813 142.359 28.3173 142.359 27.336C142.359 26.376 142.178 25.5333 141.815 24.808C141.474 24.0827 140.983 23.5173 140.343 23.112C139.703 22.6853 138.957 22.472 138.104 22.472C137.271 22.472 136.535 22.6853 135.896 23.112C135.277 23.5173 134.786 24.0827 134.424 24.808C134.061 25.5333 133.88 26.376 133.88 27.336C133.88 28.3173 134.061 29.1813 134.424 29.928C134.786 30.6533 135.277 31.2187 135.896 31.624C136.535 32.0293 137.271 32.232 138.104 32.232Z" fill="white"/>
<path d="M150.863 35.848V18.92H155.247L155.407 24.36L154.639 23.24C154.895 22.3653 155.311 21.576 155.887 20.872C156.463 20.1467 157.135 19.5813 157.903 19.176C158.693 18.7707 159.514 18.568 160.367 18.568C160.73 18.568 161.082 18.6 161.423 18.664C161.765 18.728 162.053 18.8027 162.287 18.888L161.071 23.88C160.815 23.752 160.506 23.6453 160.143 23.56C159.781 23.4533 159.407 23.4 159.023 23.4C158.511 23.4 158.031 23.496 157.583 23.688C157.157 23.8587 156.783 24.1147 156.463 24.456C156.143 24.776 155.887 25.16 155.695 25.608C155.525 26.056 155.439 26.5467 155.439 27.08V35.848H150.863Z" fill="white"/>
<path d="M166.651 35.848V14.632H171.195V35.848H166.651ZM163.483 22.984V18.92H174.651V22.984H163.483Z" fill="white"/>
<path d="M182.937 36.168C181.7 36.168 180.633 35.9013 179.737 35.368C178.863 34.8133 178.18 34.0347 177.689 33.032C177.22 32.008 176.985 30.7813 176.985 29.352V18.92H181.529V28.616C181.529 29.384 181.657 30.056 181.913 30.632C182.169 31.1867 182.532 31.6133 183.001 31.912C183.471 32.2107 184.047 32.36 184.729 32.36C185.22 32.36 185.679 32.2853 186.105 32.136C186.532 31.9653 186.895 31.7307 187.193 31.432C187.492 31.1333 187.727 30.7813 187.897 30.376C188.068 29.9707 188.153 29.5333 188.153 29.064V18.92H192.697V35.848H188.377L188.217 32.36L189.049 31.976C188.793 32.7653 188.367 33.48 187.769 34.12C187.172 34.76 186.457 35.2613 185.625 35.624C184.793 35.9867 183.897 36.168 182.937 36.168Z" fill="white"/>
<path d="M196.77 42.888V18.92H201.154L201.281 22.728L200.449 22.44C200.599 21.7573 200.961 21.128 201.537 20.552C202.135 19.976 202.871 19.5067 203.745 19.144C204.62 18.7813 205.537 18.6 206.497 18.6C207.969 18.6 209.271 18.984 210.402 19.752C211.553 20.4987 212.46 21.5333 213.121 22.856C213.804 24.1573 214.145 25.6613 214.145 27.368C214.145 29.0533 213.815 30.5573 213.154 31.88C212.492 33.2027 211.586 34.248 210.434 35.016C209.282 35.7627 207.969 36.136 206.497 36.136C205.516 36.136 204.577 35.9547 203.682 35.592C202.807 35.208 202.06 34.7067 201.441 34.088C200.823 33.4693 200.439 32.808 200.29 32.104L201.346 31.656V42.888H196.77ZM205.473 32.232C206.305 32.232 207.042 32.0293 207.682 31.624C208.322 31.2187 208.823 30.6533 209.186 29.928C209.548 29.1813 209.729 28.328 209.729 27.368C209.729 26.408 209.548 25.5653 209.186 24.84C208.823 24.1147 208.322 23.5493 207.682 23.144C207.063 22.7387 206.327 22.536 205.473 22.536C204.62 22.536 203.873 22.7387 203.233 23.144C202.593 23.528 202.092 24.0933 201.729 24.84C201.367 25.5653 201.186 26.408 201.186 27.368C201.186 28.328 201.367 29.1813 201.729 29.928C202.092 30.6533 202.593 31.2187 203.233 31.624C203.873 32.0293 204.62 32.232 205.473 32.232Z" fill="white"/>
<defs>
<linearGradient id="paint0_linear_14_61" x1="7.99876" y1="7.84785" x2="27.6203" y2="27.4693" gradientUnits="userSpaceOnUse">
<stop stop-color="#4A6CF7"/>
<stop offset="1" stop-color="#4A6CF7" stop-opacity="0"/>
</linearGradient>
<linearGradient id="paint1_linear_14_61" x1="7.99878" y1="21.9268" x2="27.6203" y2="41.5483" gradientUnits="userSpaceOnUse">
<stop stop-color="#4A6CF7" stop-opacity="0"/>
<stop offset="1" stop-color="#4A6CF7"/>
</linearGradient>
</defs>
</svg>
